static/site/images/special-projects/autoclave/svg/5-stroke.svg

<svg width="71" height="74" viewBox="0 0 71 74" fill="none" xmlns="http://www.w3.org/2000/svg">
<path d="M62.688 48.88L60.7029 48.6357L60.7015 48.6482L62.688 48.88ZM58.944 58.864L60.5615 60.0403L60.5615 60.0403L58.944 58.864ZM51.36 65.872L52.4102 67.5741L52.4102 67.5741L51.36 65.872ZM41.568 70L41.0746 68.0618L41.0582 68.066L41.0418 68.0705L41.568 70ZM16.32 69.904L15.848 71.8475L15.8641 71.8514L15.8803 71.8551L16.32 69.904ZM3.648 65.872L1.82116 65.058L0.977363 66.9516L2.90006 67.7269L3.648 65.872ZM11.904 47.344L12.892 45.6051L10.9747 44.5157L10.0772 46.53L11.904 47.344ZM20.16 50.992L19.5686 52.9026L19.5812 52.9064L20.16 50.992ZM33.312 51.76L32.9722 49.7891L32.9722 49.7891L33.312 51.76ZM38.016 49.936L39.1629 51.5745L39.1629 51.5745L38.016 49.936ZM40.32 46L38.3432 45.6959L38.3416 45.7069L40.32 46ZM39.072 42.256L37.8108 43.8082L37.8337 43.8268L37.8571 43.8447L39.072 42.256ZM35.04 40.624L35.3441 38.6473L35.3441 38.6473L35.04 40.624ZM30.336 40.24L30.2916 42.2395L30.3138 42.24H30.336V40.24ZM20.544 40.912L20.266 38.9314L20.2612 38.9321L20.544 40.912ZM10.08 43.312L8.20844 42.6068L6.74879 46.4809L10.6909 45.2164L10.08 43.312ZM25.344 2.8V0.799995H23.9603L23.4724 2.09483L25.344 2.8ZM67.776 2.8L69.7515 3.11192L70.1166 0.799995H67.776V2.8ZM64.896 21.04V23.04H66.605L66.8715 21.3519L64.896 21.04ZM38.016 21.04V19.04H36.8901L36.3061 20.0025L38.016 21.04ZM32.832 29.584L31.1221 28.5465L27.8639 33.9165L33.6272 31.4191L32.832 29.584ZM38.88 27.856L39.1796 29.8334L39.1796 29.8334L38.88 27.856ZM45.312 27.376L45.3471 25.3763L45.3295 25.376H45.312V27.376ZM54.912 30.256L53.7937 31.9141L53.8025 31.9201L53.8114 31.9259L54.912 30.256ZM61.248 37.84L59.4174 38.6455L59.4241 38.6607L59.431 38.6758L61.248 37.84ZM60.7015 48.6482C60.2888 52.1854 59.1508 55.1793 57.3265 57.6877L60.5615 60.0403C62.8332 56.9167 64.1912 53.2546 64.6745 49.1118L60.7015 48.6482ZM57.3265 57.6877C55.434 60.2899 53.0997 62.4485 50.3098 64.1699L52.4102 67.5741C55.6363 65.5835 58.358 63.0701 60.5615 60.0403L57.3265 57.6877ZM50.3098 64.1699C47.4791 65.9165 44.4036 67.2144 41.0746 68.0618L42.0614 71.9382C45.7724 70.9936 49.2249 69.5395 52.4102 67.5741L50.3098 64.1699ZM41.0418 68.0705C37.6804 68.9872 34.4013 69.44 31.2 69.44V73.44C34.7827 73.44 38.4156 72.9328 42.0942 71.9295L41.0418 68.0705ZM31.2 69.44C25.9498 69.44 21.1393 68.9399 16.7597 67.9529L15.8803 71.8551C20.5887 72.9161 25.6982 73.44 31.2 73.44V69.44ZM16.792 67.9605C12.3988 66.8936 8.26762 65.5783 4.39594 64.0171L2.90006 67.7269C6.96438 69.3657 11.2812 70.7384 15.848 71.8475L16.792 67.9605ZM5.47484 66.686L13.7308 48.158L10.0772 46.53L1.82116 65.058L5.47484 66.686ZM10.916 49.0829C13.8392 50.7438 16.7237 52.022 19.5686 52.9026L20.7514 49.0814C18.2203 48.298 15.6008 47.1442 12.892 45.6051L10.916 49.0829ZM19.5812 52.9064C22.4645 53.7781 25.1286 54.24 27.552 54.24V50.24C25.6234 50.24 23.3595 49.8699 20.7388 49.0776L19.5812 52.9064ZM27.552 54.24C29.6439 54.24 31.6778 54.0713 33.6518 53.7309L32.9722 49.7891C31.2342 50.0887 29.4281 50.24 27.552 50.24V54.24ZM33.6518 53.7309C35.7394 53.371 37.5972 52.6705 39.1629 51.5745L36.8691 48.2975C35.8748 48.9935 34.5966 49.509 32.9722 49.7891L33.6518 53.7309ZM39.1629 51.5745C40.9486 50.3245 41.9724 48.494 42.2984 46.2931L38.3416 45.7069C38.1556 46.962 37.6434 47.7555 36.8691 48.2975L39.1629 51.5745ZM42.2967 46.3041C42.6338 44.1134 42.098 42.0522 40.2869 40.6673L37.8571 43.8447C38.222 44.1238 38.5182 44.5586 38.3433 45.6959L42.2967 46.3041ZM40.3332 40.7038C38.9673 39.594 37.264 38.9426 35.3441 38.6473L34.7359 42.6007C36.144 42.8174 37.1287 43.254 37.8108 43.8082L40.3332 40.7038ZM35.3441 38.6473C33.5935 38.3779 31.9231 38.24 30.336 38.24V42.24C31.6929 42.24 33.1585 42.3581 34.7359 42.6007L35.3441 38.6473ZM30.3804 38.2405C27.3677 38.1735 23.9929 38.4083 20.266 38.9314L20.822 42.8926C24.3911 42.3917 27.5443 42.1785 30.2916 42.2395L30.3804 38.2405ZM20.2612 38.9321C16.5677 39.4597 12.9699 40.2847 9.46915 41.4076L10.6909 45.2164C13.9741 44.1633 17.3523 43.3883 20.8268 42.8919L20.2612 38.9321ZM11.9516 44.0172L27.2156 3.50516L23.4724 2.09483L8.20844 42.6068L11.9516 44.0172ZM25.344 4.8H67.776V0.799995H25.344V4.8ZM65.8005 2.48807L62.9205 20.7281L66.8715 21.3519L69.7515 3.11192L65.8005 2.48807ZM64.896 19.04H38.016V23.04H64.896V19.04ZM36.3061 20.0025L31.1221 28.5465L34.5419 30.6215L39.7259 22.0775L36.3061 20.0025ZM33.6272 31.4191C35.3856 30.6572 37.2347 30.1281 39.1796 29.8334L38.5804 25.8786C36.3013 26.2239 34.1184 26.8468 32.0368 27.7489L33.6272 31.4191ZM39.1796 29.8334C41.1906 29.5287 43.2344 29.376 45.312 29.376V25.376C43.0376 25.376 40.7934 25.5433 38.5804 25.8786L39.1796 29.8334ZM45.2769 29.3757C48.5783 29.4336 51.3937 30.2955 53.7937 31.9141L56.0303 28.5979C52.9263 26.5045 49.3418 25.4464 45.3471 25.3763L45.2769 29.3757ZM53.8114 31.9259C56.2937 33.562 58.1584 35.7843 59.4174 38.6455L63.0786 37.0345C61.5216 33.4957 59.1623 30.662 56.0126 28.5861L53.8114 31.9259ZM59.431 38.6758C60.7205 41.479 61.1783 44.7736 60.703 48.6357L64.673 49.1243C65.2217 44.6664 64.7195 40.601 63.065 37.0042L59.431 38.6758Z" fill="#0073FF"/>
</svg>

<svg width="71" height="74" fill="none" xmlns="http://www.w3.org/2000/svg"><path d="M62.688 48.88l-1.985-.244-.002.012 1.987.232zm-3.744 9.984l1.617 1.176-1.617-1.176zm-7.584 7.008l1.05 1.702-1.05-1.702zM41.568 70l-.493-1.938-.017.004-.016.004.526 1.93zm-25.248-.096l-.472 1.944.016.003.016.004.44-1.951zM3.648 65.872l-1.827-.814-.844 1.894 1.923.775.748-1.855zm8.256-18.528l.988-1.739-1.917-1.09-.898 2.015 1.827.814zm8.256 3.648l-.591 1.91.012.004.579-1.914zm13.152.768l-.34-1.97.34 1.97zm4.704-1.824l1.147 1.639-1.147-1.639zM40.32 46l-1.977-.304-.001.01L40.32 46zm-1.248-3.744l-1.261 1.552.023.019.023.018 1.215-1.589zm-4.032-1.632l.304-1.977-.304 1.977zm-4.704-.384l-.044 2h.044v-2zm-9.792.672l-.278-1.98h-.005l.283 1.98zm-10.464 2.4l-1.872-.705-1.46 3.874 3.943-1.265-.611-1.904zM25.344 2.8v-2H23.96l-.488 1.295 1.872.705zm42.432 0l1.975.312L70.117.8h-2.341v2zm-2.88 18.24v2h1.709l.266-1.688-1.975-.312zm-26.88 0v-2H36.89l-.584.963 1.71 1.037zm-5.184 8.544l-1.71-1.037-3.258 5.37 5.763-2.498-.795-1.835zm6.048-1.728l.3 1.977-.3-1.977zm6.432-.48l.035-2h-.035v2zm9.6 2.88l-1.118 1.658.009.006.008.006 1.101-1.67zm6.336 7.584l-1.83.805.006.016.007.015 1.817-.836zm-.546 10.808c-.413 3.537-1.551 6.531-3.375 9.04l3.235 2.352c2.271-3.123 3.63-6.785 4.112-10.928l-3.973-.464zm-3.375 9.04a24.454 24.454 0 01-7.017 6.482l2.1 3.404a28.454 28.454 0 008.152-7.534l-3.235-2.352zM50.31 64.17c-2.83 1.746-5.906 3.044-9.235 3.892l.986 3.876c3.711-.944 7.164-2.398 10.35-4.364L50.31 64.17zm-9.268 3.9c-3.362.917-6.64 1.37-9.842 1.37v4c3.583 0 7.216-.507 10.894-1.51l-1.052-3.86zM31.2 69.44c-5.25 0-10.06-.5-14.44-1.487l-.88 3.902c4.709 1.061 9.818 1.585 15.32 1.585v-4zm-14.408-1.48c-4.393-1.066-8.524-2.382-12.396-3.943L2.9 67.727c4.064 1.639 8.381 3.011 12.948 4.12l.944-3.886zM5.475 66.686l8.256-18.528-3.654-1.628-8.256 18.528 3.654 1.628zm5.441-17.603c2.923 1.66 5.808 2.939 8.653 3.82l1.182-3.822c-2.53-.783-5.15-1.937-7.859-3.476l-1.976 3.478zm8.665 3.823c2.884.872 5.548 1.334 7.971 1.334v-4c-1.929 0-4.192-.37-6.813-1.162l-1.158 3.828zm7.971 1.334c2.092 0 4.126-.169 6.1-.51l-.68-3.94c-1.738.299-3.544.45-5.42.45v4zm6.1-.51c2.087-.359 3.945-1.06 5.51-2.155l-2.293-3.278c-.994.697-2.272 1.212-3.897 1.492l.68 3.942zm5.51-2.155c1.787-1.25 2.81-3.081 3.136-5.282l-3.956-.586c-.186 1.255-.699 2.048-1.473 2.59l2.294 3.278zm3.135-5.27c.337-2.192-.199-4.253-2.01-5.638l-2.43 3.178c.365.279.661.714.486 1.85l3.954.61zm-1.964-5.601c-1.366-1.11-3.069-1.761-4.989-2.057l-.608 3.954c1.408.216 2.393.653 3.075 1.207l2.522-3.104zm-4.989-2.057a32.992 32.992 0 00-5.008-.407v4c1.357 0 2.822.118 4.4.36l.608-3.953zm-4.964-.407c-3.012-.067-6.387.168-10.114.691l.556 3.962c3.57-.501 6.722-.715 9.47-.654l.088-3.998zm-10.119.692A65.676 65.676 0 009.47 41.408l1.222 3.808a61.687 61.687 0 0110.136-2.324l-.566-3.96zm-8.31 5.085L27.217 3.505l-3.744-1.41L8.208 42.607l3.744 1.41zM25.345 4.8h42.432v-4H25.344v4zM65.8 2.488l-2.88 18.24 3.951.624 2.88-18.24-3.95-.624zm-.904 16.552h-26.88v4h26.88v-4zm-28.59.963l-5.184 8.544 3.42 2.075 5.184-8.544-3.42-2.075zm-2.679 11.416a22.302 22.302 0 015.553-1.586l-.6-3.954a26.274 26.274 0 00-6.543 1.87l1.59 3.67zm5.553-1.586a40.875 40.875 0 016.132-.457v-4c-2.274 0-4.519.167-6.732.503l.6 3.954zm6.097-.457c3.301.058 6.117.92 8.517 2.538l2.236-3.316c-3.104-2.093-6.688-3.152-10.683-3.222l-.07 4zm8.534 2.55c2.483 1.636 4.347 3.858 5.606 6.72l3.662-1.611c-1.557-3.54-3.917-6.373-7.066-8.449l-2.202 3.34zm5.62 6.75c1.29 2.803 1.747 6.098 1.272 9.96l3.97.488c.549-4.458.046-8.523-1.608-12.12l-3.634 1.672z" fill="#0073FF"/></svg>
